X: 26
T:Major (do) Scales
L:1/4
M:10/4
K:Ab
"^A flat" A2 Bc de fg a2|a2 gf ed cB A2||
M:10/4
K:Eb
"^E flat" E2 FG AB cd e2|e2 dc BA GF E2||
M:10/4
K:Bb
"^B flat" B2 cd ef ga b2|b2 ag fe dc B2||
M:10/4
K:F
"^F"      F2 GA Bc de f2|f2 ed cB AG F2||
M:10/4
K:C
"^C"      C2 DE FG AB c2|c2 BA GF ED C2||
M:10/4
K:G
"^G"      G2 AB cd ef g2|g2 fe dc BA G2||
M:10/4
K:D
"^D"      D2 EF GA Bc d2|d2 cB AG FE D2||
M:10/4
K:A
"^A"      A2 Bc de fg a2|a2 gf ed cB A2||
M:10/4
K:E
"^E"      E2 FG AB cd e2|e2 dc BA GF E2|]

For comparison, it may be useful to describe these modes by the sequence
of pitches occurring in each one when the home note is fixed: I'll use A,
since this is one of the commonest tonal centres in Scottish music and is
the home note of the pipe chanter.  The major scale for A is AB^cde^f^ga.

Another way to compare different scales is to pick a fixed absolute pitch
set and say which note in it becomes the tonal centre; I'll use the pitch
set of the pipe chanter.  "The Bens of Jura" uses every note it has,
centring on D, and pipers sometimes call the major mode the "D mode".
Because the word "mode" is used in other ways in this document, I'll say
the D major scale is the "D-final" seven-note mode on the chanter.

